ssr-frontend/static/img/branding/logo.svg

<?xml version="1.0" encoding="UTF-8"?>
<svg width="720px" height="720px" viewBox="0 0 720 720" version="1.1" xmlns="http://www.w3.org/2000/svg" xmlns:xlink="http://www.w3.org/1999/xlink">
    <title>Frank JE Flitton Logo</title>
    <defs>
        <polygon id="path-1" points="0.0001 0 721.9991 0 721.9991 721.155931 0.0001 721.155931"></polygon>
        <polygon id="path-3" points="0 0.9914 722 0.9914 722 2 0 2"></polygon>
    </defs>
    <g id="Logo/SVG-Copy" stroke="none" stroke-width="1" fill="none" fill-rule="evenodd">
        <rect fill="#000000" x="0" y="0" width="720" height="720"></rect>
        <g id="Group-15" transform="translate(-1.000000, -1.000000)">
            <g id="Group-3">
                <mask id="mask-2" fill="white">
                    <use xlink:href="#path-1"></use>
                </mask>
                <g id="Clip-2"></g>
                <path d="M494.6031,368.8278 C508.7681,368.8278 522.9391,369.0718 537.0951,368.7278 C544.5511,368.5478 552.0621,367.7868 559.4021,366.4728 C567.1061,365.0938 569.6351,362.1298 570.1161,354.2488 C571.7341,327.7548 561.0181,307.2538 538.6851,293.2228 C502.1041,270.2388 446.6491,278.8518 415.9921,312.3098 C389.3681,341.3668 379.9371,376.0108 385.9621,414.5038 C398.7821,496.3988 484.4871,515.6808 535.6671,483.3978 C551.0461,473.6968 562.2721,460.4048 569.8741,443.9718 C571.5861,440.2678 570.0471,436.3698 565.9711,434.0408 C562.4471,432.0268 559.9191,432.4968 557.1131,436.0458 C553.2341,440.9508 548.9481,445.9618 543.7991,449.3548 C526.0901,461.0238 506.6641,461.0368 487.1361,455.1788 C454.8091,445.4808 433.1861,414.6798 432.5041,378.3308 C432.3381,369.4858 432.8691,368.8658 441.6091,368.8428 C459.2741,368.7958 476.9381,368.8288 494.6031,368.8278 L494.6031,368.8278 Z M317.2371,367.8298 C317.3321,369.7058 317.4881,371.3278 317.4881,372.9498 C317.5011,412.6098 318.0841,452.2818 317.2491,491.9228 C316.8341,511.6508 314.7931,531.4748 311.7561,550.9868 C306.7441,583.1878 291.7811,609.3218 261.6311,624.8258 C258.3971,626.4888 257.6531,630.4128 260.0471,633.7068 C262.1051,636.5358 264.7011,639.5998 268.6941,636.7848 C279.1661,629.4028 289.9451,622.3588 299.7911,614.2018 C323.5081,594.5528 341.4241,570.6578 349.5001,540.4588 C355.0911,519.5568 355.7551,498.0268 355.9871,476.5238 C356.6401,415.8958 357.2251,355.2658 357.8591,294.6378 C357.9131,289.4528 355.9711,288.1458 350.7731,289.0148 C337.6661,291.2058 324.5551,294.2788 311.3561,294.8328 C283.4131,296.0058 255.4121,295.8548 227.4331,296.1178 C220.3921,296.1838 218.1701,293.7918 218.0411,286.2008 C217.6271,261.6908 218.1721,237.2278 222.9561,213.0708 C226.1121,197.1298 230.6061,181.6618 240.7271,168.5088 C255.1311,149.7868 278.3501,145.3548 298.6471,157.3678 C309.2101,163.6198 317.1691,172.4718 323.6491,182.7548 C330.8001,194.1028 343.3761,195.6818 353.1661,186.4348 C360.2901,179.7068 361.6081,168.6828 356.3581,158.7848 C351.8031,150.1988 344.4871,144.4908 336.0541,140.1718 C317.2181,130.5278 297.1541,128.6548 276.7141,132.5278 C237.8461,139.8938 212.2241,163.9818 196.1531,198.9968 C183.8591,225.7828 179.7971,254.4098 179.6251,283.6198 C179.5841,290.5858 176.9901,294.9478 170.8591,297.7588 C164.6601,300.6008 158.6421,303.8478 152.4061,306.6018 C148.7241,308.2278 148.1471,310.8648 148.7521,314.2978 C149.3641,317.7708 151.7981,318.0998 154.7281,318.0338 C160.0571,317.9118 165.3941,317.9158 170.7231,318.0528 C177.8571,318.2348 179.0681,319.4828 179.4671,326.5498 C179.5321,327.7128 179.4981,328.8828 179.4981,330.0488 C179.4991,371.0408 179.5651,412.0348 179.4311,453.0268 C179.4101,459.6588 178.7771,466.3238 177.9221,472.9088 C177.0621,479.5318 173.0611,483.7638 166.4051,485.0398 C161.6711,485.9478 156.8771,486.5418 152.1061,487.2518 C146.8411,488.0358 145.4291,489.9648 145.9871,495.2978 C146.4771,499.9778 149.0351,501.1158 153.4941,500.9058 C167.9591,500.2258 182.4441,499.5478 196.9181,499.5938 C214.7291,499.6508 232.5391,500.3698 250.3441,500.9508 C255.1641,501.1078 255.8041,497.8618 256.0561,494.4708 C256.2941,491.2568 256.1391,487.9978 251.5381,487.6558 C245.8941,487.2358 240.2681,486.5728 234.6361,485.9998 C225.0341,485.0258 220.6261,480.9418 219.1561,471.3998 C218.6251,467.9518 218.2041,464.4448 218.1911,460.9628 C218.0731,430.6368 218.0571,400.3108 218.0341,369.9848 C218.0341,369.3648 218.3131,368.7438 218.5331,367.8298 L317.2371,367.8298 Z M0.0001,720.9918 L0.0001,-0.0002 L721.9991,-0.0002 L721.9991,720.9918 C720.0041,721.0458 718.0091,721.155931 716.0141,721.155931 C479.3381,721.155931 242.6621,721.155931 5.9861,721.155931 C3.9911,721.155931 1.9951,721.0458 0.0001,720.9918 L0.0001,720.9918 Z" id="Fill-1" fill="#000000" mask="url(#mask-2)"></path>
            </g>
            <g id="Group-6" transform="translate(0.000000, 720.000000)">
                <mask id="mask-4" fill="white">
                    <use xlink:href="#path-3"></use>
                </mask>
                <g id="Clip-5"></g>
                <path d="M0,0.9914 C1.995,1.0464 3.991,1.1504 5.986,1.1504 C242.662,1.1574 479.338,1.1574 716.014,1.1494 C718.009,1.1494 720.004,1.0464 722,0.9914 C721.833,1.3244 721.684,1.9344 721.498,1.9464 C720.169,2.0304 718.833,1.9914 717.5,1.9914 C479.833,1.9914 242.167,1.9924 4.5,1.9494 C3,1.9494 1.5,1.3244 0,0.9914" id="Fill-4" fill="#FFFFFF" mask="url(#mask-4)"></path>
            </g>
            <path d="M258.5162,351.8278 C263.5072,351.8278 268.5172,352.1018 273.4872,351.7728 C284.9122,351.0158 296.3652,350.3378 307.7142,348.9008 C315.2452,347.9468 317.1152,344.9208 316.9972,337.2728 C316.7922,323.9738 311.5732,318.3928 298.1332,318.2278 C274.8442,317.9418 251.5502,317.9998 228.2582,318.0328 C220.6062,318.0428 218.2372,320.4998 218.0382,328.3338 C217.8832,334.4858 218.2482,340.6588 217.9142,346.7968 C217.6912,350.8888 219.2532,351.9498 223.0772,351.8918 C234.8882,351.7138 246.7032,351.8278 258.5162,351.8278 M317.2372,367.8298 L218.5332,367.8298 C218.3132,368.7438 218.0342,369.3648 218.0342,369.9848 C218.0572,400.3108 218.0732,430.6368 218.1912,460.9628 C218.2042,464.4448 218.6252,467.9518 219.1562,471.3998 C220.6262,480.9418 225.0342,485.0258 234.6362,485.9998 C240.2682,486.5728 245.8942,487.2358 251.5372,487.6558 C256.1392,487.9978 256.2942,491.2568 256.0562,494.4708 C255.8042,497.8618 255.1632,501.1078 250.3442,500.9508 C232.5392,500.3698 214.7292,499.6508 196.9182,499.5938 C182.4442,499.5478 167.9592,500.2258 153.4942,500.9058 C149.0352,501.1158 146.4762,499.9778 145.9872,495.2978 C145.4292,489.9648 146.8412,488.0358 152.1062,487.2518 C156.8772,486.5418 161.6712,485.9478 166.4052,485.0398 C173.0612,483.7638 177.0622,479.5318 177.9222,472.9088 C178.7772,466.3238 179.4102,459.6588 179.4312,453.0268 C179.5652,412.0348 179.4982,371.0408 179.4972,330.0488 C179.4972,328.8828 179.5322,327.7128 179.4672,326.5498 C179.0682,319.4828 177.8572,318.2348 170.7232,318.0528 C165.3942,317.9158 160.0572,317.9118 154.7272,318.0338 C151.7982,318.0998 149.3642,317.7708 148.7522,314.2978 C148.1472,310.8648 148.7242,308.2278 152.4062,306.6018 C158.6422,303.8478 164.6602,300.6008 170.8592,297.7588 C176.9902,294.9478 179.5842,290.5858 179.6252,283.6198 C179.7972,254.4098 183.8592,225.7828 196.1532,198.9968 C212.2242,163.9818 237.8462,139.8938 276.7142,132.5278 C297.1542,128.6548 317.2182,130.5278 336.0542,140.1718 C344.4872,144.4908 351.8032,150.1988 356.3582,158.7848 C361.6082,168.6828 360.2892,179.7068 353.1662,186.4348 C343.3762,195.6818 330.8002,194.1028 323.6492,182.7548 C317.1692,172.4718 309.2102,163.6198 298.6472,157.3678 C278.3502,145.3548 255.1312,149.7868 240.7272,168.5088 C230.6062,181.6618 226.1122,197.1298 222.9552,213.0708 C218.1722,237.2278 217.6272,261.6908 218.0412,286.2008 C218.1702,293.7918 220.3912,296.1838 227.4332,296.1178 C255.4112,295.8548 283.4122,296.0058 311.3562,294.8328 C324.5552,294.2788 337.6652,291.2058 350.7732,289.0148 C355.9712,288.1458 357.9122,289.4528 357.8592,294.6378 C357.2252,355.2658 356.6402,415.8958 355.9872,476.5238 C355.7552,498.0268 355.0912,519.5568 349.5002,540.4588 C341.4242,570.6578 323.5082,594.5528 299.7902,614.2018 C289.9452,622.3588 279.1662,629.4028 268.6942,636.7848 C264.7012,639.5998 262.1052,636.5358 260.0472,633.7068 C257.6532,630.4128 258.3972,626.4888 261.6312,624.8258 C291.7812,609.3218 306.7442,583.1878 311.7562,550.9868 C314.7932,531.4748 316.8342,511.6508 317.2492,491.9228 C318.0842,452.2818 317.5012,412.6098 317.4882,372.9498 C317.4882,371.3278 317.3322,369.7058 317.2372,367.8298" id="Fill-7" fill="#FFFFFF"></path>
            <path d="M471.0181,347.9953 C478.0021,347.9953 484.9971,348.2373 491.9681,347.9233 C498.2511,347.6413 504.5861,347.1733 510.7531,346.0133 C517.4571,344.7503 520.5111,340.4853 520.8221,333.6763 C521.5701,317.3063 510.2471,303.5403 494.0761,300.9053 C465.8991,296.3143 443.2281,317.5013 437.1521,340.2113 C435.5541,346.1833 436.9151,347.8643 443.0811,347.9523 C452.3911,348.0853 461.7051,347.9873 471.0181,347.9953 M494.6031,368.8283 C476.9381,368.8283 459.2741,368.7963 441.6091,368.8433 C432.8691,368.8663 432.3381,369.4863 432.5041,378.3303 C433.1861,414.6803 454.8091,445.4803 487.1361,455.1793 C506.6641,461.0373 526.0901,461.0233 543.7991,449.3543 C548.9481,445.9623 553.2341,440.9503 557.1131,436.0463 C559.9191,432.4973 562.4471,432.0263 565.9711,434.0413 C570.0471,436.3693 571.5861,440.2673 569.8731,443.9723 C562.2721,460.4043 551.0461,473.6963 535.6671,483.3973 C484.4871,515.6813 398.7821,496.3983 385.9621,414.5043 C379.9371,376.0113 389.3681,341.3673 415.9921,312.3103 C446.6491,278.8513 502.1041,270.2393 538.6851,293.2233 C561.0181,307.2543 571.7341,327.7553 570.1161,354.2493 C569.6351,362.1303 567.1061,365.0933 559.4021,366.4733 C552.0621,367.7873 544.5511,368.5473 537.0951,368.7283 C522.9391,369.0723 508.7681,368.8283 494.6031,368.8283" id="Fill-9" fill="#FFFFFF"></path>
            <path d="M258.5162,351.8273 C246.7032,351.8273 234.8882,351.7143 223.0772,351.8923 C219.2532,351.9503 217.6912,350.8893 217.9142,346.7963 C218.2482,340.6583 217.8832,334.4853 218.0382,328.3333 C218.2372,320.4993 220.6062,318.0433 228.2582,318.0323 C251.5502,317.9993 274.8442,317.9423 298.1332,318.2283 C311.5732,318.3933 316.7922,323.9743 316.9972,337.2723 C317.1152,344.9213 315.2452,347.9463 307.7142,348.9003 C296.3652,350.3383 284.9122,351.0153 273.4872,351.7723 C268.5172,352.1023 263.5072,351.8273 258.5162,351.8273" id="Fill-11" fill="#000000"></path>
            <path d="M471.0181,347.9914 C461.7051,347.9874 452.3911,348.0854 443.0811,347.9524 C436.9151,347.8644 435.5541,346.1834 437.1521,340.2114 C443.2281,317.5014 465.8991,296.3144 494.0761,300.9054 C510.2471,303.5404 521.5701,317.3054 520.8221,333.6764 C520.5111,340.4854 517.4571,344.7504 510.7531,346.0124 C504.5861,347.1734 498.2511,347.6404 491.9681,347.9234 C484.9971,348.2374 478.0021,347.9954 471.0181,347.9914" id="Fill-13" fill="#000000"></path>
        </g>
    </g>
</svg>

<svg height="720" viewBox="0 0 720 720" width="720" xmlns="http://www.w3.org/2000/svg" xmlns:xlink="http://www.w3.org/1999/xlink"><mask id="a" fill="#fff"><path d="m.0001 0h721.999v721.155931h-721.999z" fill="#fff" fill-rule="evenodd"/></mask><mask id="b" fill="#fff"><path d="m0 .9914h722v1.0086h-722z" fill="#fff" fill-rule="evenodd"/></mask><g fill="none" fill-rule="evenodd"><path d="m0 0h720v720h-720z" fill="#000"/><g transform="translate(-1 -1)"><path d="m494.6031 368.8278c14.165 0 28.336.244 42.492-.1 7.456-.18 14.967-.941 22.307-2.255 7.704-1.379 10.233-4.343 10.714-12.224 1.618-26.494-9.098-46.995-31.431-61.026-36.581-22.984-92.036-14.371-122.693 19.087-26.624 29.057-36.055 63.701-30.03 102.194 12.82 81.895 98.525 101.177 149.705 68.894 15.379-9.701 26.605-22.993 34.207-39.426 1.712-3.704.173-7.602-3.903-9.931-3.524-2.014-6.052-1.544-8.858 2.005-3.879 4.905-8.165 9.916-13.314 13.309-17.709 11.669-37.135 11.682-56.663 5.824-32.327-9.698-53.95-40.499-54.632-76.848-.166-8.845.365-9.465 9.105-9.488 17.665-.047 35.329-.014 52.994-.015zm-177.366-.998c.095 1.876.251 3.498.251 5.12.013 39.66.596 79.332-.239 118.973-.415 19.728-2.456 39.552-5.493 59.064-5.012 32.201-19.975 58.335-50.125 73.839-3.234 1.663-3.978 5.587-1.584 8.881 2.058 2.829 4.654 5.893 8.647 3.078 10.472-7.382 21.251-14.426 31.097-22.583 23.717-19.649 41.633-43.544 49.709-73.743 5.591-20.902 6.255-42.432 6.487-63.935.653-60.628 1.238-121.258 1.872-181.886.054-5.185-1.888-6.492-7.086-5.623-13.107 2.191-26.218 5.264-39.417 5.818-27.943 1.173-55.944 1.022-83.923 1.285-7.041.066-9.263-2.326-9.392-9.917-.414-24.51.131-48.973 4.915-73.13 3.156-15.941 7.65-31.409 17.771-44.562 14.404-18.722 37.623-23.154 57.92-11.141 10.563 6.252 18.522 15.104 25.002 25.387 7.151 11.348 19.727 12.927 29.517 3.68 7.124-6.728 8.442-17.752 3.192-27.65-4.555-8.586-11.871-14.294-20.304-18.613-18.836-9.644-38.9-11.517-59.34-7.644-38.868 7.366-64.49 31.454-80.561 66.469-12.294 26.786-16.356 55.413-16.528 84.623-.041 6.966-2.635 11.328-8.766 14.139-6.199 2.842-12.217 6.089-18.453 8.843-3.682 1.626-4.259 4.263-3.654 7.696.612 3.473 3.046 3.802 5.976 3.736 5.329-.122 10.666-.118 15.995.019 7.134.182 8.345 1.43 8.744 8.497.065 1.163.031 2.333.031 3.499.001 40.992.067 81.986-.067 122.978-.021 6.632-.654 13.297-1.509 19.882-.86 6.623-4.861 10.855-11.517 12.131-4.734.908-9.528 1.502-14.299 2.212-5.265.784-6.677 2.713-6.119 8.046.49 4.68 3.048 5.818 7.507 5.608 14.465-.68 28.95-1.358 43.424-1.312 17.811.057 35.621.776 53.426 1.357 4.82.157 5.46-3.089 5.712-6.48.238-3.214.083-6.473-4.518-6.815-5.644-.42-11.27-1.083-16.902-1.656-9.602-.974-14.01-5.058-15.48-14.6-.531-3.448-.952-6.955-.965-10.437-.118-30.326-.134-60.652-.157-90.978 0-.62.279-1.241.499-2.155zm-317.237 353.162v-720.992h721.999v720.992c-1.995.054-3.99.164131-5.985.164131-236.676 0-473.352 0-710.028 0-1.995 0-3.991-.110131-5.986-.164131z" fill="#000" mask="url(#a)"/><g fill="#fff"><path d="m0 .9914c1.995.055 3.991.159 5.986.159 236.676.007 473.352.007 710.028-.001 1.995 0 3.99-.103 5.986-.158-.167.333-.316.943-.502.955-1.329.084-2.665.045-3.998.045-237.667 0-475.333.001-713-.042-1.5 0-3-.625-4.5-.958" mask="url(#b)" transform="translate(0 720)"/><path d="m258.5162 351.8278c4.991 0 10.001.274 14.971-.055 11.425-.757 22.878-1.435 34.227-2.872 7.531-.954 9.401-3.98 9.283-11.628-.205-13.299-5.424-18.88-18.864-19.045-23.289-.286-46.583-.228-69.875-.195-7.652.01-10.021 2.467-10.22 10.301-.155 6.152.21 12.325-.124 18.463-.223 4.092 1.339 5.153 5.163 5.095 11.811-.178 23.626-.064 35.439-.064m58.721 16.002h-98.704c-.22.914-.499 1.535-.499 2.155.023 30.326.039 60.652.157 90.978.013 3.482.434 6.989.965 10.437 1.47 9.542 5.878 13.626 15.48 14.6 5.632.573 11.258 1.236 16.901 1.656 4.602.342 4.757 3.601 4.519 6.815-.252 3.391-.893 6.637-5.712 6.48-17.805-.581-35.615-1.3-53.426-1.357-14.474-.046-28.959.632-43.424 1.312-4.459.21-7.018-.928-7.507-5.608-.558-5.333.854-7.262 6.119-8.046 4.771-.71 9.565-1.304 14.299-2.212 6.656-1.276 10.657-5.508 11.517-12.131.855-6.585 1.488-13.25 1.509-19.882.134-40.992.067-81.986.066-122.978 0-1.166.035-2.336-.03-3.499-.399-7.067-1.61-8.315-8.744-8.497-5.329-.137-10.666-.141-15.996-.019-2.929.066-5.363-.263-5.975-3.736-.605-3.433-.028-6.07 3.654-7.696 6.236-2.754 12.254-6.001 18.453-8.843 6.131-2.811 8.725-7.173 8.766-14.139.172-29.21 4.234-57.837 16.528-84.623 16.071-35.015 41.693-59.103 80.561-66.469 20.44-3.873 40.504-2 59.34 7.644 8.433 4.319 15.749 10.027 20.304 18.613 5.25 9.898 3.931 20.922-3.192 27.65-9.79 9.247-22.366 7.668-29.517-3.68-6.48-10.283-14.439-19.135-25.002-25.387-20.297-12.013-43.516-7.581-57.92 11.141-10.121 13.153-14.615 28.621-17.772 44.562-4.783 24.157-5.328 48.62-4.914 73.13.129 7.591 2.35 9.983 9.392 9.917 27.978-.263 55.979-.112 83.923-1.285 13.199-.554 26.309-3.627 39.417-5.818 5.198-.869 7.139.438 7.086 5.623-.634 60.628-1.219 121.258-1.872 181.886-.232 21.503-.896 43.033-6.487 63.935-8.076 30.199-25.992 54.094-49.71 73.743-9.845 8.157-20.624 15.201-31.096 22.583-3.993 2.815-6.589-.249-8.647-3.078-2.394-3.294-1.65-7.218 1.584-8.881 30.15-15.504 45.113-41.638 50.125-73.839 3.037-19.512 5.078-39.336 5.493-59.064.835-39.641.252-79.313.239-118.973 0-1.622-.156-3.244-.251-5.12"/><path d="m471.0181 347.9953c6.984 0 13.979.242 20.95-.072 6.283-.282 12.618-.75 18.785-1.91 6.704-1.263 9.758-5.528 10.069-12.337.748-16.37-10.575-30.136-26.746-32.771-28.177-4.591-50.848 16.596-56.924 39.306-1.598 5.972-.237 7.653 5.929 7.741 9.31.133 18.624.035 27.937.043m23.585 20.833c-17.665 0-35.329-.032-52.994.015-8.74.023-9.271.643-9.105 9.487.682 36.35 22.305 67.15 54.632 76.849 19.528 5.858 38.954 5.844 56.663-5.825 5.149-3.392 9.435-8.404 13.314-13.308 2.806-3.549 5.334-4.02 8.858-2.005 4.076 2.328 5.615 6.226 3.902 9.931-7.601 16.432-18.827 29.724-34.206 39.425-51.18 32.284-136.885 13.001-149.705-68.893-6.025-38.493 3.406-73.137 30.03-102.194 30.657-33.459 86.112-42.071 122.693-19.087 22.333 14.031 33.049 34.532 31.431 61.026-.481 7.881-3.01 10.844-10.714 12.224-7.34 1.314-14.851 2.074-22.307 2.255-14.156.344-28.327.1-42.492.1"/></g><path d="m258.5162 351.8273c-11.813 0-23.628-.113-35.439.065-3.824.058-5.386-1.003-5.163-5.096.334-6.138-.031-12.311.124-18.463.199-7.834 2.568-10.29 10.22-10.301 23.292-.033 46.586-.09 69.875.196 13.44.165 18.659 5.746 18.864 19.044.118 7.649-1.752 10.674-9.283 11.628-11.349 1.438-22.802 2.115-34.227 2.872-4.97.33-9.98.055-14.971.055" fill="#000"/><path d="m471.0181 347.9914c-9.313-.004-18.627.094-27.937-.039-6.166-.088-7.527-1.769-5.929-7.741 6.076-22.71 28.747-43.897 56.924-39.306 16.171 2.635 27.494 16.4 26.746 32.771-.311 6.809-3.365 11.074-10.069 12.336-6.167 1.161-12.502 1.628-18.785 1.911-6.971.314-13.966.072-20.95.068" fill="#000"/></g></g></svg>
